X:1
T:The Gambling Man
M:4/4
L:1/4
K:D
 A| d d f e/2d/2| A d2 A| =c d/2c/2 A G/2F/2| D3 D| F D F G| A =c2 A/2A/2|\
 d e/2d/2 A G/2F/2| D3||
